fs/picture_in_picture_enter_24_regular.svg

<svg viewBox="0 0 24 24" fill="none" xmlns="http://www.w3.org/2000/svg" height="1em" width="1em">
  <path d="M2 6.25C2 4.45507 3.45507 3 5.25 3H18.75C20.5449 3 22 4.45507 22 6.25V12H20.5V6.25C20.5 5.2835 19.7165 4.5 18.75 4.5H5.25C4.2835 4.5 3.5 5.2835 3.5 6.25V15.75C3.5 16.7165 4.2835 17.5 5.25 17.5H11V19H5.25C3.45507 19 2 17.5449 2 15.75V6.25ZM14 13C12.8954 13 12 13.8954 12 15V20C12 21.1046 12.8954 22 14 22H21C22.1046 22 23 21.1046 23 20V15C23 13.8954 22.1046 13 21 13H14ZM5.21967 6.21967C5.51256 5.92678 5.98744 5.92678 6.28033 6.21967L9.5 9.43934V7.75C9.5 7.33579 9.83579 7 10.25 7C10.6642 7 11 7.33579 11 7.75V11.25C11 11.6642 10.6642 12 10.25 12H6.75C6.33579 12 6 11.6642 6 11.25C6 10.8358 6.33579 10.5 6.75 10.5H8.43934L5.21967 7.28033C4.92678 6.98744 4.92678 6.51256 5.21967 6.21967Z" fill="#212121"/>
</svg>

<svg viewBox="0 0 24 24" fill="none" xmlns="http://www.w3.org/2000/svg" height="1em" width="1em">
  <path d="M2 6.25A3.25 3.25 0 0 1 5.25 3h13.5A3.25 3.25 0 0 1 22 6.25V12h-1.5V6.25a1.75 1.75 0 0 0-1.75-1.75H5.25A1.75 1.75 0 0 0 3.5 6.25v9.5c0 .966.784 1.75 1.75 1.75H11V19H5.25A3.25 3.25 0 0 1 2 15.75v-9.5ZM14 13a2 2 0 0 0-2 2v5a2 2 0 0 0 2 2h7a2 2 0 0 0 2-2v-5a2 2 0 0 0-2-2h-7ZM5.22 6.22a.75.75 0 0 1 1.06 0L9.5 9.44V7.75a.75.75 0 0 1 1.5 0v3.5a.75.75 0 0 1-.75.75h-3.5a.75.75 0 0 1 0-1.5h1.69L5.22 7.28a.75.75 0 0 1 0-1.06Z" fill="#212121"/>
</svg>
